assets/images/logo-top.svg

<?xml version="1.0" encoding="UTF-8" standalone="no"?>
<!-- Generator: Gravit.io -->

<svg
   style="isolation:isolate"
   viewBox="0 0 88 21"
   width="88pt"
   height="21pt"
   version="1.1"
   id="svg19"
   xmlns="http://www.w3.org/2000/svg"
   xmlns:svg="http://www.w3.org/2000/svg">
  <defs
     id="defs5">
    <clipPath
       id="_clipPath_StmSwJFZNjqkDyo58diPXrOobrvwZPmt">
      <rect
         width="525"
         height="124"
         id="rect2"
         x="0"
         y="0" />
    </clipPath>
  </defs>
  <g
     id="g888"
     transform="matrix(0.16764854,0,0,0.16764854,-0.00797685,0.10501289)">
    <path
       id="path7"
       style="fill:#ffffff;stroke:none;stroke-width:1.33333;stroke-miterlimit:10"
       d="m 22.326172,0.2265625 c -12.285333,0 -22.25976575,9.9744325 -22.25976575,22.2597655 V 142.85938 c 0,12.28533 9.97443275,22.25976 22.25976575,22.25976 H 142.69922 c 12.28533,0 22.26172,-9.97443 22.26172,-22.25976 V 22.486328 c 0,-12.285333 -9.97639,-22.2597655 -22.26172,-22.2597655 z M 50.177734,35.867188 h 58.521486 c 13.96444,-10e-7 24.74642,3.011156 32.34375,9.035156 7.59822,6.023111 11.39648,14.647269 11.39648,25.873047 0,8.214222 -2.32731,15.299239 -6.98242,21.253906 -4.65422,5.955555 -10.95213,9.892153 -18.89258,11.808593 l 31.625,49.28125 h -27.51562 l -27.3125,-44.55859 H 74.613281 v 44.55859 H 50.177734 Z m 24.435547,19.097656 v 34.498047 h 32.238279 c 6.84534,0 12.04831,-1.541094 15.60742,-4.621094 3.55912,-3.08 5.3379,-7.425729 5.3379,-13.039063 0,-11.225777 -7.25452,-16.83789 -21.76563,-16.83789 z"
       transform="scale(0.75)" />
    <path
       d="m 159.805,115.517 v 0 0 q 4.034,0 7.534,-1.4 v 0 0 q 3.499,-1.4 6.874,-3.952 v 0 l 3.294,4.94 v 0 q -1.565,1.4 -3.664,2.552 v 0 0 q -2.1,1.153 -4.528,1.935 v 0 0 q -2.429,0.782 -5.064,1.235 v 0 0 q -2.635,0.453 -5.269,0.453 v 0 0 q -5.846,0 -10.662,-1.523 v 0 0 q -4.817,-1.523 -8.193,-4.446 v 0 0 q -3.375,-2.923 -5.228,-7.204 v 0 0 q -1.852,-4.282 -1.852,-9.88 v 0 0 q 0,-5.517 1.77,-9.839 v 0 0 q 1.77,-4.323 4.94,-7.245 v 0 0 q 3.17,-2.923 7.533,-4.446 v 0 0 q 4.364,-1.524 9.633,-1.524 v 0 0 q 4.94,0 9.304,1.482 v 0 0 q 4.364,1.482 7.575,4.323 v 0 0 q 3.211,2.84 5.104,6.875 v 0 0 q 1.894,4.034 1.894,9.139 v 0 5.763 h -35.156 v 0 q 0.988,6.834 4.734,9.798 v 0 0 q 3.746,2.964 9.427,2.964 z m -2.882,-34.992 v 0 0 q -2.387,0 -4.446,0.906 v 0 0 q -2.058,0.905 -3.581,2.881 v 0 0 q -1.523,1.976 -2.47,5.105 v 0 0 q -0.947,3.129 -1.029,7.575 v 0 h 23.053 v 0 q 0,-4.282 -0.988,-7.41 v 0 0 q -0.988,-3.129 -2.593,-5.146 v 0 0 q -1.606,-2.017 -3.705,-2.964 v 0 0 q -2.1,-0.947 -4.241,-0.947 z m 78.629,13.173 v 25.935 h -11.527 v -25.935 0 q 0,-5.928 -2.964,-8.521 v 0 0 q -2.964,-2.594 -8.563,-2.594 v 0 h -10.703 v 37.05 H 190.268 V 76.82 h 22.23 v 0 q 11.774,0 17.414,4.24 v 0 0 q 5.64,4.24 5.64,12.638 z m 20.583,12.35 v 0 0 q 0,7.822 9.468,7.822 v 0 H 277.13 V 98.227 h -11.527 v 0 q -9.468,0 -9.468,7.821 z m 9.468,-13.585 h 11.527 v 0 q 0,-5.928 -3.087,-8.727 v 0 0 q -3.088,-2.799 -8.028,-2.799 v 0 0 q -3.705,0 -7.245,1.111 v 0 0 q -3.541,1.112 -6.34,3.005 v 0 l -2.882,-4.94 v 0 q 1.812,-1.235 3.994,-2.14 v 0 0 q 2.181,-0.906 4.487,-1.523 v 0 0 q 2.305,-0.618 4.569,-0.947 v 0 0 q 2.264,-0.33 4.24,-0.33 v 0 0 q 5.27,0 9.304,1.235 v 0 0 q 4.034,1.235 6.834,3.541 v 0 0 q 2.799,2.305 4.24,5.475 v 0 0 q 1.441,3.17 1.441,7.039 v 0 27.17 h -23.054 v 0 q -11.197,0 -16.507,-3.375 v 0 0 q -5.311,-3.376 -5.311,-10.21 v 0 0 q 0,-6.833 5.311,-10.209 v 0 0 q 5.31,-3.376 16.507,-3.376 z m 79.452,1.235 v 25.935 h -11.527 v -25.935 0 q 0,-5.928 -2.964,-8.521 v 0 0 q -2.964,-2.594 -8.562,-2.594 v 0 h -10.704 v 37.05 H 299.772 V 76.82 h 22.23 v 0 q 11.773,0 17.413,4.24 v 0 0 q 5.64,4.24 5.64,12.638 z M 356.17,62 h 27.17 v 0 q 7.41,0 13.461,1.853 v 0 0 q 6.052,1.852 10.374,5.475 v 0 0 q 4.323,3.622 6.711,9.015 v 0 0 q 2.387,5.393 2.387,12.474 v 0 0 q 0,7.08 -2.387,12.473 v 0 0 q -2.388,5.393 -6.711,9.016 v 0 0 q -4.322,3.622 -10.374,5.475 v 0 0 q -6.051,1.852 -13.461,1.852 v 0 h -27.17 z m 27.17,6.175 h -15.232 v 45.283 h 15.232 v 0 q 4.199,0 7.863,-1.276 v 0 0 q 3.664,-1.276 6.381,-4.034 v 0 0 q 2.717,-2.758 4.322,-7.04 v 0 0 q 1.606,-4.281 1.606,-10.291 v 0 0 q 0,-6.011 -1.606,-10.292 v 0 0 q -1.605,-4.281 -4.322,-7.039 v 0 0 q -2.717,-2.759 -6.381,-4.035 v 0 0 q -3.664,-1.276 -7.863,-1.276 z m 66.69,47.342 v 0 0 q 4.034,0 7.533,-1.4 v 0 0 q 3.5,-1.4 6.875,-3.952 v 0 l 3.294,4.94 v 0 q -1.565,1.4 -3.664,2.552 v 0 0 q -2.1,1.153 -4.529,1.935 v 0 0 q -2.428,0.782 -5.063,1.235 v 0 0 q -2.635,0.453 -5.269,0.453 v 0 0 q -5.846,0 -10.663,-1.523 v 0 0 q -4.816,-1.523 -8.192,-4.446 v 0 0 q -3.375,-2.923 -5.228,-7.204 v 0 0 q -1.852,-4.282 -1.852,-9.88 v 0 0 q 0,-5.517 1.77,-9.839 v 0 0 q 1.77,-4.323 4.94,-7.245 v 0 0 q 3.17,-2.923 7.533,-4.446 v 0 0 q 4.364,-1.524 9.633,-1.524 v 0 0 q 4.94,0 9.304,1.482 v 0 0 q 4.364,1.482 7.575,4.323 v 0 0 q 3.211,2.84 5.104,6.875 v 0 0 q 1.894,4.034 1.894,9.139 v 0 5.763 h -35.156 v 0 q 0.988,6.834 4.734,9.798 v 0 0 q 3.746,2.964 9.427,2.964 z m -2.882,-34.992 v 0 0 q -2.387,0 -4.446,0.906 v 0 0 q -2.058,0.905 -3.581,2.881 v 0 0 q -1.523,1.976 -2.47,5.105 v 0 0 q -0.947,3.129 -1.029,7.575 v 0 h 23.053 v 0 q 0,-4.282 -0.988,-7.41 v 0 0 q -0.988,-3.129 -2.594,-5.146 v 0 0 q -1.605,-2.017 -3.705,-2.964 v 0 0 q -2.099,-0.947 -4.24,-0.947 z m 77.805,-3.705 -16.466,42.813 H 490.373 L 473.907,76.82 h 11.526 l 13.585,35.815 h 0.824 L 513.427,76.82 Z"
       fill="#017cb9"
       id="path13"
       style="fill:#ffffff" />
  </g>
</svg>

<?xml version="1.0" encoding="UTF-8" standalone="no"?><!-- Generator: Gravit.io --><svg xmlns="http://www.w3.org/2000/svg" xmlns:xlink="http://www.w3.org/1999/xlink" style="isolation:isolate" viewBox="0 0 525 124" width="525pt" height="124pt"><defs><clipPath id="_clipPath_StmSwJFZNjqkDyo58diPXrOobrvwZPmt"><rect width="525" height="124"/></clipPath></defs><g clip-path="url(#_clipPath_StmSwJFZNjqkDyo58diPXrOobrvwZPmt)"><g><g><path d="M 16.745 0.17 L 107.025 0.17 C 116.239 0.17 123.72 7.651 123.72 16.865 L 123.72 107.145 C 123.72 116.359 116.239 123.84 107.025 123.84 L 16.745 123.84 C 7.531 123.84 0.05 116.359 0.05 107.145 L 0.05 16.865 C 0.05 7.651 7.531 0.17 16.745 0.17 Z" style="stroke:none;fill:#017CB9;stroke-miterlimit:10;"/><path d=" M 118.642 114.84 L 98.005 114.84 L 77.521 81.42 L 55.96 81.42 L 55.96 114.84 L 37.633 114.84 L 37.633 26.9 L 81.525 26.9 L 81.525 26.9 Q 97.235 26.9 105.782 33.677 L 105.782 33.677 L 105.782 33.677 Q 114.33 40.453 114.33 53.082 L 114.33 53.082 L 114.33 53.082 Q 114.33 62.323 109.093 69.022 L 109.093 69.022 L 109.093 69.022 Q 103.857 75.722 94.924 77.878 L 94.924 77.878 L 118.642 114.84 Z  M 95.848 53.852 L 95.848 53.852 L 95.848 53.852 Q 95.848 41.223 79.523 41.223 L 79.523 41.223 L 55.96 41.223 L 55.96 67.097 L 80.139 67.097 L 80.139 67.097 Q 87.84 67.097 91.844 63.632 L 91.844 63.632 L 91.844 63.632 Q 95.848 60.167 95.848 53.852 Z " fill="rgb(255,255,255)"/></g><path d=" M 159.805 115.517 L 159.805 115.517 L 159.805 115.517 Q 163.839 115.517 167.339 114.117 L 167.339 114.117 L 167.339 114.117 Q 170.838 112.717 174.213 110.165 L 174.213 110.165 L 177.507 115.105 L 177.507 115.105 Q 175.942 116.505 173.843 117.657 L 173.843 117.657 L 173.843 117.657 Q 171.743 118.81 169.315 119.592 L 169.315 119.592 L 169.315 119.592 Q 166.886 120.374 164.251 120.827 L 164.251 120.827 L 164.251 120.827 Q 161.616 121.28 158.982 121.28 L 158.982 121.28 L 158.982 121.28 Q 153.136 121.28 148.32 119.757 L 148.32 119.757 L 148.32 119.757 Q 143.503 118.234 140.127 115.311 L 140.127 115.311 L 140.127 115.311 Q 136.752 112.388 134.899 108.107 L 134.899 108.107 L 134.899 108.107 Q 133.047 103.825 133.047 98.227 L 133.047 98.227 L 133.047 98.227 Q 133.047 92.71 134.817 88.388 L 134.817 88.388 L 134.817 88.388 Q 136.587 84.065 139.757 81.143 L 139.757 81.143 L 139.757 81.143 Q 142.927 78.22 147.29 76.697 L 147.29 76.697 L 147.29 76.697 Q 151.654 75.173 156.923 75.173 L 156.923 75.173 L 156.923 75.173 Q 161.863 75.173 166.227 76.655 L 166.227 76.655 L 166.227 76.655 Q 170.591 78.137 173.802 80.978 L 173.802 80.978 L 173.802 80.978 Q 177.013 83.818 178.906 87.853 L 178.906 87.853 L 178.906 87.853 Q 180.8 91.887 180.8 96.992 L 180.8 96.992 L 180.8 102.755 L 145.644 102.755 L 145.644 102.755 Q 146.632 109.589 150.378 112.553 L 150.378 112.553 L 150.378 112.553 Q 154.124 115.517 159.805 115.517 Z  M 156.923 80.525 L 156.923 80.525 L 156.923 80.525 Q 154.536 80.525 152.477 81.431 L 152.477 81.431 L 152.477 81.431 Q 150.419 82.336 148.896 84.312 L 148.896 84.312 L 148.896 84.312 Q 147.373 86.288 146.426 89.417 L 146.426 89.417 L 146.426 89.417 Q 145.479 92.546 145.397 96.992 L 145.397 96.992 L 168.45 96.992 L 168.45 96.992 Q 168.45 92.71 167.462 89.582 L 167.462 89.582 L 167.462 89.582 Q 166.474 86.453 164.869 84.436 L 164.869 84.436 L 164.869 84.436 Q 163.263 82.419 161.164 81.472 L 161.164 81.472 L 161.164 81.472 Q 159.064 80.525 156.923 80.525 Z  M 235.552 93.698 L 235.552 119.633 L 224.025 119.633 L 224.025 93.698 L 224.025 93.698 Q 224.025 87.77 221.061 85.177 L 221.061 85.177 L 221.061 85.177 Q 218.097 82.583 212.498 82.583 L 212.498 82.583 L 201.795 82.583 L 201.795 119.633 L 190.268 119.633 L 190.268 76.82 L 212.498 76.82 L 212.498 76.82 Q 224.272 76.82 229.912 81.06 L 229.912 81.06 L 229.912 81.06 Q 235.552 85.3 235.552 93.698 L 235.552 93.698 Z  M 256.135 106.048 L 256.135 106.048 L 256.135 106.048 Q 256.135 113.87 265.603 113.87 L 265.603 113.87 L 277.13 113.87 L 277.13 98.227 L 265.603 98.227 L 265.603 98.227 Q 256.135 98.227 256.135 106.048 Z  M 265.603 92.463 L 277.13 92.463 L 277.13 92.463 Q 277.13 86.535 274.043 83.736 L 274.043 83.736 L 274.043 83.736 Q 270.955 80.937 266.015 80.937 L 266.015 80.937 L 266.015 80.937 Q 262.31 80.937 258.77 82.048 L 258.77 82.048 L 258.77 82.048 Q 255.229 83.16 252.43 85.053 L 252.43 85.053 L 249.548 80.113 L 249.548 80.113 Q 251.36 78.878 253.542 77.973 L 253.542 77.973 L 253.542 77.973 Q 255.723 77.067 258.029 76.45 L 258.029 76.45 L 258.029 76.45 Q 260.334 75.832 262.598 75.503 L 262.598 75.503 L 262.598 75.503 Q 264.862 75.173 266.838 75.173 L 266.838 75.173 L 266.838 75.173 Q 272.108 75.173 276.142 76.408 L 276.142 76.408 L 276.142 76.408 Q 280.176 77.643 282.976 79.949 L 282.976 79.949 L 282.976 79.949 Q 285.775 82.254 287.216 85.424 L 287.216 85.424 L 287.216 85.424 Q 288.657 88.594 288.657 92.463 L 288.657 92.463 L 288.657 119.633 L 265.603 119.633 L 265.603 119.633 Q 254.406 119.633 249.096 116.258 L 249.096 116.258 L 249.096 116.258 Q 243.785 112.882 243.785 106.048 L 243.785 106.048 L 243.785 106.048 Q 243.785 99.215 249.096 95.839 L 249.096 95.839 L 249.096 95.839 Q 254.406 92.463 265.603 92.463 L 265.603 92.463 Z  M 345.055 93.698 L 345.055 119.633 L 333.528 119.633 L 333.528 93.698 L 333.528 93.698 Q 333.528 87.77 330.564 85.177 L 330.564 85.177 L 330.564 85.177 Q 327.6 82.583 322.002 82.583 L 322.002 82.583 L 311.298 82.583 L 311.298 119.633 L 299.772 119.633 L 299.772 76.82 L 322.002 76.82 L 322.002 76.82 Q 333.775 76.82 339.415 81.06 L 339.415 81.06 L 339.415 81.06 Q 345.055 85.3 345.055 93.698 L 345.055 93.698 Z  M 356.17 62 L 383.34 62 L 383.34 62 Q 390.75 62 396.801 63.853 L 396.801 63.853 L 396.801 63.853 Q 402.853 65.705 407.175 69.328 L 407.175 69.328 L 407.175 69.328 Q 411.498 72.95 413.886 78.343 L 413.886 78.343 L 413.886 78.343 Q 416.273 83.736 416.273 90.817 L 416.273 90.817 L 416.273 90.817 Q 416.273 97.897 413.886 103.29 L 413.886 103.29 L 413.886 103.29 Q 411.498 108.683 407.175 112.306 L 407.175 112.306 L 407.175 112.306 Q 402.853 115.928 396.801 117.781 L 396.801 117.781 L 396.801 117.781 Q 390.75 119.633 383.34 119.633 L 383.34 119.633 L 356.17 119.633 L 356.17 62 Z  M 383.34 68.175 L 368.108 68.175 L 368.108 113.458 L 383.34 113.458 L 383.34 113.458 Q 387.539 113.458 391.203 112.182 L 391.203 112.182 L 391.203 112.182 Q 394.867 110.906 397.584 108.148 L 397.584 108.148 L 397.584 108.148 Q 400.301 105.39 401.906 101.108 L 401.906 101.108 L 401.906 101.108 Q 403.512 96.827 403.512 90.817 L 403.512 90.817 L 403.512 90.817 Q 403.512 84.806 401.906 80.525 L 401.906 80.525 L 401.906 80.525 Q 400.301 76.244 397.584 73.486 L 397.584 73.486 L 397.584 73.486 Q 394.867 70.727 391.203 69.451 L 391.203 69.451 L 391.203 69.451 Q 387.539 68.175 383.34 68.175 L 383.34 68.175 Z  M 450.03 115.517 L 450.03 115.517 L 450.03 115.517 Q 454.064 115.517 457.563 114.117 L 457.563 114.117 L 457.563 114.117 Q 461.063 112.717 464.438 110.165 L 464.438 110.165 L 467.732 115.105 L 467.732 115.105 Q 466.167 116.505 464.068 117.657 L 464.068 117.657 L 464.068 117.657 Q 461.968 118.81 459.539 119.592 L 459.539 119.592 L 459.539 119.592 Q 457.111 120.374 454.476 120.827 L 454.476 120.827 L 454.476 120.827 Q 451.841 121.28 449.207 121.28 L 449.207 121.28 L 449.207 121.28 Q 443.361 121.28 438.544 119.757 L 438.544 119.757 L 438.544 119.757 Q 433.728 118.234 430.352 115.311 L 430.352 115.311 L 430.352 115.311 Q 426.977 112.388 425.124 108.107 L 425.124 108.107 L 425.124 108.107 Q 423.272 103.825 423.272 98.227 L 423.272 98.227 L 423.272 98.227 Q 423.272 92.71 425.042 88.388 L 425.042 88.388 L 425.042 88.388 Q 426.812 84.065 429.982 81.143 L 429.982 81.143 L 429.982 81.143 Q 433.152 78.22 437.515 76.697 L 437.515 76.697 L 437.515 76.697 Q 441.879 75.173 447.148 75.173 L 447.148 75.173 L 447.148 75.173 Q 452.088 75.173 456.452 76.655 L 456.452 76.655 L 456.452 76.655 Q 460.816 78.137 464.027 80.978 L 464.027 80.978 L 464.027 80.978 Q 467.238 83.818 469.131 87.853 L 469.131 87.853 L 469.131 87.853 Q 471.025 91.887 471.025 96.992 L 471.025 96.992 L 471.025 102.755 L 435.869 102.755 L 435.869 102.755 Q 436.857 109.589 440.603 112.553 L 440.603 112.553 L 440.603 112.553 Q 444.349 115.517 450.03 115.517 Z  M 447.148 80.525 L 447.148 80.525 L 447.148 80.525 Q 444.761 80.525 442.702 81.431 L 442.702 81.431 L 442.702 81.431 Q 440.644 82.336 439.121 84.312 L 439.121 84.312 L 439.121 84.312 Q 437.598 86.288 436.651 89.417 L 436.651 89.417 L 436.651 89.417 Q 435.704 92.546 435.622 96.992 L 435.622 96.992 L 458.675 96.992 L 458.675 96.992 Q 458.675 92.71 457.687 89.582 L 457.687 89.582 L 457.687 89.582 Q 456.699 86.453 455.093 84.436 L 455.093 84.436 L 455.093 84.436 Q 453.488 82.419 451.388 81.472 L 451.388 81.472 L 451.388 81.472 Q 449.289 80.525 447.148 80.525 Z  M 524.953 76.82 L 508.487 119.633 L 490.373 119.633 L 473.907 76.82 L 485.433 76.82 L 499.018 112.635 L 499.842 112.635 L 513.427 76.82 L 524.953 76.82 Z " fill="rgb(1,124,185)"/></g></g></svg>
